X:25
T:Keys Hornpipe. JBu.25
T:Kite Hornpipe,aka. JBu.25
O:England,South Yorkshire
S:Joshua Burnett’s MS,c1835,S.Yorkshire
M:C|
L:1/8
Q:1/2=80
R:.hornpipe
Z:vmp.R.Greig.2011
K:Bb
(3fga|bBba gfed|efgB BAGF|GBAc Bdce|dfgB BAGF|
Bbab gfed|efgB BAGF|GBAc Bdce|dfgAB2:|
|:G/F/E|DBFB DBFB| EBGB EBGB|EecA EecA|edcB AGFE|
DBFB DBFB|EBGB EBGB|EecA EecA|B2B2B2:|

